localPackages/DesignSystem/Sources/DesignSystem/Resources/Assets.xcassets/IconSet/ic-brand-firefox.imageset/ic-brand-firefox.svg

<svg width="24" height="24" viewBox="0 0 24 24" fill="none" xmlns="http://www.w3.org/2000/svg">
<g id="ic-brand-firefox">
<path id="Icon" d="M9.12808 7.389C9.13154 7.38913 9.13495 7.38939 9.12808 7.389V7.389ZM6.59609 6.12318C6.59955 6.12331 6.603 6.12353 6.59609 6.12318V6.12318ZM21.7436 8.07767C21.2866 6.97853 20.3611 5.79181 19.6343 5.41679C20.2258 6.57617 20.5682 7.73961 20.699 8.6077C20.699 8.60945 20.6997 8.61365 20.7011 8.6252C19.5121 5.66192 17.4962 4.46689 15.8498 1.86529C15.7667 1.73369 15.6833 1.60183 15.6021 1.46279C15.5608 1.3918 15.5221 1.31923 15.4864 1.24527C15.4181 1.11328 15.3655 0.973802 15.3295 0.829643C15.3298 0.82281 15.3275 0.816128 15.323 0.810912C15.3186 0.805697 15.3124 0.802327 15.3056 0.801468C15.2992 0.799576 15.2923 0.799576 15.2859 0.801468C15.2845 0.801949 15.2822 0.803699 15.2807 0.804312C15.2784 0.805187 15.2754 0.807331 15.273 0.808468C15.2741 0.806893 15.2766 0.803349 15.2774 0.802562C12.9395 2.17194 11.9704 4.56913 11.7213 6.095C10.9989 6.13604 10.2914 6.3166 9.63772 6.6267C9.57827 6.65611 9.53178 6.70648 9.50722 6.7681C9.48266 6.82973 9.48176 6.89826 9.50468 6.96051C9.51668 6.99521 9.53579 7.02703 9.56078 7.05394C9.58577 7.08084 9.6161 7.10223 9.64983 7.11674C9.68356 7.13126 9.71995 7.13857 9.75667 7.13823C9.79339 7.13788 9.82963 7.12988 9.86308 7.11473C10.4334 6.84564 11.0488 6.68502 11.6779 6.64109C11.6984 6.63965 11.7189 6.63838 11.7393 6.63672C11.8258 6.63146 11.9123 6.62838 11.9989 6.62748C12.5093 6.62393 13.0176 6.69432 13.5079 6.83648C13.5365 6.84488 13.5645 6.85459 13.593 6.86343C13.6744 6.88832 13.7552 6.91519 13.8353 6.94402C13.8939 6.9658 13.9522 6.98861 14.01 7.01244C14.057 7.03143 14.1039 7.05042 14.1502 7.07067C14.2225 7.10268 14.2939 7.13633 14.3646 7.1716C14.3971 7.1877 14.4296 7.20376 14.4616 7.22047C14.5306 7.25668 14.5988 7.29442 14.6661 7.33365C14.7096 7.35886 14.7527 7.38477 14.7953 7.41135C15.5569 7.88253 16.1889 8.53632 16.634 9.31347C16.0726 8.91907 15.0673 8.52956 14.0988 8.698C17.8806 10.5886 16.8653 17.0992 11.625 16.8534C11.1583 16.8343 10.6971 16.7454 10.2569 16.5895C10.1527 16.5504 10.0498 16.5083 9.94804 16.4632C9.88872 16.4362 9.82944 16.4089 9.77081 16.3786C8.48679 15.715 7.42655 14.4609 7.29408 12.9379C7.29408 12.9379 7.7794 11.1295 10.7693 11.1295C11.0925 11.1295 12.0165 10.2277 12.0337 9.96609C12.0297 9.88065 10.1998 9.15278 9.48639 8.44989C9.10516 8.0743 8.92416 7.89326 8.76391 7.75737C8.67692 7.68394 8.58601 7.6153 8.49156 7.55175C8.25188 6.71331 8.24169 5.8259 8.46203 4.98218C7.38197 5.47401 6.54184 6.25141 5.93113 6.9378H5.92628C5.50943 6.40987 5.53887 4.66836 5.56263 4.30475C5.55764 4.28218 5.2517 4.46356 5.21158 4.49086C4.8438 4.75342 4.49995 5.04799 4.18406 5.37111C3.82461 5.73562 3.49618 6.12947 3.20218 6.54856C3.20218 6.54908 3.20188 6.54965 3.2017 6.55018C3.2017 6.54965 3.20201 6.54913 3.20218 6.54856C2.5261 7.50673 2.04664 8.58936 1.79151 9.73396C1.78897 9.74555 1.69132 10.1738 1.62001 10.7029C1.60791 10.7852 1.59669 10.8676 1.58636 10.9501C1.56195 11.1092 1.54296 11.2826 1.52424 11.5524C1.52341 11.5629 1.52288 11.5732 1.52214 11.5836C1.51433 11.7001 1.50732 11.8167 1.50109 11.9334C1.50109 11.9513 1.5 11.9691 1.5 11.987C1.5 17.7931 6.2075 22.4997 12.0142 22.4997C17.2145 22.4997 21.5324 18.7246 22.3778 13.7659C22.3956 13.6314 22.4098 13.4961 22.4256 13.3604C22.6345 11.5574 22.4024 9.66238 21.7436 8.07767Z" fill="#0F0F0F"/>
</g>
</svg>

<svg xmlns="http://www.w3.org/2000/svg" width="24" height="24" viewBox="0 0 24 24">
  <g class="ic-brand-firefox">
    <path d="M9.128 7.39c.007 0 .004 0 0 0ZM6.596 6.124c.007 0 .004 0 0 0Zm15.148 1.954c-.457-1.099-1.383-2.285-2.11-2.66.592 1.159.934 2.322 1.065 3.19l.002.018c-1.189-2.963-3.205-4.158-4.851-6.76-.083-.132-.167-.263-.248-.402a3.193 3.193 0 0 1-.116-.218 1.912 1.912 0 0 1-.163-.434.027.027 0 0 0-.017-.01.035.035 0 0 0-.02 0c-.002 0-.004.002-.005.003-.003 0-.006.003-.008.004a.078.078 0 0 1 .004-.006c-2.337 1.37-3.307 3.767-3.556 5.293a5.602 5.602 0 0 0-2.083.531.269.269 0 0 0-.133.334.264.264 0 0 0 .358.154 5.064 5.064 0 0 1 1.815-.473l.061-.005a5.147 5.147 0 0 1 1.769.2l.085.027a5.263 5.263 0 0 1 .557.207c.072.032.144.066.215.101.032.016.065.032.097.05a5.255 5.255 0 0 1 .333.19 5.382 5.382 0 0 1 1.839 1.902c-.561-.394-1.567-.784-2.535-.615 3.782 1.89 2.766 8.4-2.474 8.155a4.667 4.667 0 0 1-1.368-.264 5.813 5.813 0 0 1-.486-.21c-1.284-.664-2.344-1.918-2.477-3.441 0 0 .485-1.809 3.475-1.809.323 0 1.248-.902 1.265-1.163-.004-.086-1.834-.813-2.548-1.516-.38-.376-.562-.557-.722-.693a3.136 3.136 0 0 0-.272-.206 4.87 4.87 0 0 1-.03-2.57c-1.08.493-1.92 1.27-2.53 1.957h-.006c-.417-.528-.387-2.27-.363-2.634-.005-.022-.311.16-.351.187a7.665 7.665 0 0 0-1.028.88 9.21 9.21 0 0 0-.982 1.177v.002-.002a8.874 8.874 0 0 0-1.41 3.186c-.003.011-.1.44-.172.969l-.034.247a7.048 7.048 0 0 0-.062.602l-.002.031c-.008.117-.015.233-.02.35l-.002.054C1.5 17.794 6.207 22.5 12.014 22.5c5.2 0 9.518-3.775 10.364-8.733.018-.135.032-.27.048-.406.209-1.803-.024-3.698-.682-5.283Z" class="Icon"/>
  </g>
</svg>
